humanity-icon-theme/Humanity/actions/22/go-previous.svg

<?xml version="1.0" encoding="UTF-8" standalone="no"?>
<!-- Created with Inkscape (http://www.inkscape.org/) -->

<svg
   xmlns:dc="http://purl.org/dc/elements/1.1/"
   xmlns:cc="http://creativecommons.org/ns#"
   xmlns:rdf="http://www.w3.org/1999/02/22-rdf-syntax-ns#"
   xmlns:svg="http://www.w3.org/2000/svg"
   xmlns="http://www.w3.org/2000/svg"
   xmlns:xlink="http://www.w3.org/1999/xlink"
   version="1.1"
   width="22"
   height="22"
   id="svg3734">
  <metadata
     id="metadata29">
    <rdf:RDF>
      <cc:Work
         rdf:about="">
        <dc:format>image/svg+xml</dc:format>
        <dc:type
           rdf:resource="http://purl.org/dc/dcmitype/StillImage" />
        <dc:title></dc:title>
      </cc:Work>
    </rdf:RDF>
  </metadata>
  <defs
     id="defs3736">
    <linearGradient
       id="linearGradient4456">
      <stop
         id="stop4458"
         style="stop-color:#f6daae;stop-opacity:1"
         offset="0" />
      <stop
         id="stop4460"
         style="stop-color:#f0c178;stop-opacity:0"
         offset="1" />
    </linearGradient>
    <linearGradient
       id="linearGradient3390-178-986-453-4-5">
      <stop
         id="stop3624-8-6"
         style="stop-color:#bb2b12;stop-opacity:1"
         offset="0" />
      <stop
         id="stop3626-1-1"
         style="stop-color:#cd7233;stop-opacity:1"
         offset="1" />
    </linearGradient>
    <linearGradient
       x1="-39.666138"
       y1="198.90807"
       x2="-46.583271"
       y2="176.95729"
       id="linearGradient3732"
       xlink:href="#linearGradient3390-178-986-453-4-5"
       gradientUnits="userSpaceOnUse"
       gradientTransform="matrix(0.92956783,0,0,0.99594396,51.30231,-181.73954)" />
    <linearGradient
       id="linearGradient7012-661-145-733-759-865-745-661-970-94-1-0">
      <stop
         id="stop3618-1-9"
         style="stop-color:#f0c178;stop-opacity:1"
         offset="0" />
      <stop
         id="stop3270-5-6"
         style="stop-color:#e18941;stop-opacity:1"
         offset="0.5" />
      <stop
         id="stop3620-9-3"
         style="stop-color:#ec4f18;stop-opacity:1"
         offset="1" />
    </linearGradient>
    <linearGradient
       x1="-50.886345"
       y1="180.47154"
       x2="-45.507504"
       y2="196.53625"
       id="linearGradient4322"
       xlink:href="#linearGradient7012-661-145-733-759-865-745-661-970-94-1-0"
       gradientUnits="userSpaceOnUse"
       gradientTransform="matrix(0.92956783,0,0,0.99594396,51.30231,-181.73954)" />
    <linearGradient
       x1="-51.962116"
       y1="181.47562"
       x2="-50.043999"
       y2="197.11452"
       id="linearGradient4324"
       xlink:href="#linearGradient7012-661-145-733-759-865-745-661-970-94-1-0"
       gradientUnits="userSpaceOnUse"
       gradientTransform="matrix(0.92956783,0,0,0.99594396,51.30231,-181.73954)" />
    <linearGradient
       x1="-39.666138"
       y1="198.90807"
       x2="-46.583271"
       y2="176.95729"
       id="linearGradient4452"
       xlink:href="#linearGradient3390-178-986-453-4-5"
       gradientUnits="userSpaceOnUse"
       gradientTransform="matrix(0.92956783,0,0,0.99594396,51.30231,-181.73954)" />
    <linearGradient
       x1="5.5"
       y1="-3"
       x2="13"
       y2="16"
       id="linearGradient4462"
       xlink:href="#linearGradient4456"
       gradientUnits="userSpaceOnUse" />
    <linearGradient
       x1="5.5"
       y1="-3"
       x2="13"
       y2="16"
       id="linearGradient3007"
       xlink:href="#linearGradient4456"
       gradientUnits="userSpaceOnUse" />
  </defs>
  <g
     transform="translate(0,6.000447)"
     id="layer1">
    <path
       d="M 8.4801887,-1.4935535 2.5,4.99993 8.4801887,11.493553"
       id="path3169-2-3"
       style="fill:none;stroke:url(#linearGradient3732);stroke-width:5;stroke-linecap:round;stroke-linejoin:round;stroke-miterlimit:4;stroke-opacity:1;stroke-dasharray:none;display:inline;enable-background:new" />
    <path
       d="M 19,5 6.5,4.99993"
       id="path3765"
       style="fill:none;stroke:url(#linearGradient4452);stroke-width:6;stroke-linecap:round;stroke-linejoin:round;stroke-miterlimit:4;stroke-opacity:1;stroke-dasharray:none;display:inline;enable-background:new" />
    <path
       d="M 8.5110963,-1.5245386 2.5,4.99993 8.3036121,11.524354"
       id="path4277"
       style="fill:none;stroke:url(#linearGradient4322);stroke-width:3;stroke-linecap:round;stroke-linejoin:round;stroke-miterlimit:4;stroke-opacity:1;stroke-dasharray:none;display:inline;enable-background:new" />
    <path
       d="M 19,5 6.5,4.99993"
       id="path4279"
       style="fill:none;stroke:url(#linearGradient4324);stroke-width:4;stroke-linecap:round;stroke-linejoin:round;stroke-miterlimit:4;stroke-opacity:1;stroke-dasharray:none;display:inline;enable-background:new" />
    <path
       d="M 8.8347091,10.612303 6.5,8 C 5.5575961,6.9455453 6.5,6.5 8,6.5 l 10.5,0 c 3,0 2.5,-3 0,-3 l -10,0 c -1.5,0 -3,0 -2,-1.5 l 2.3355739,-2.54571541 c 1.5000001,-1.99999999 -0.5,-2.49999999 -1.5,-1.49999999 L 2,4 C 1.5,4.5 1.4724356,5.3333333 2,6 l 5.3347091,6.112303 c 1,1 2.9136049,0.08168 1.5,-1.5 z"
       id="path4454"
       style="opacity:0.4;fill:none;stroke:url(#linearGradient3007);stroke-width:1;stroke-linecap:round;stroke-linejoin:round;stroke-miterlimit:4;stroke-opacity:1;stroke-dasharray:none;display:inline;enable-background:new" />
    <path
       d="m 6.5,2 2.4034591,-2.54398585 c 1.4999999,-1.99999995 -0.5,-2.49999995 -1.5,-1.49999995 L 2,4 C 1.5,4.5 1.4724356,5.3333333 2,6 l 5.3351415,6.111439 c 1,1 2.9140115,0.08132 1.5,-1.5 L 6.5,8"
       id="path4464"
       style="opacity:0.4;fill:none;stroke:url(#linearGradient4462);stroke-width:1;stroke-linecap:round;stroke-linejoin:round;stroke-miterlimit:4;stroke-opacity:1;stroke-dasharray:none;display:inline;enable-background:new" />
    <path
       d="M 7.1241352,-1.6267296 2,4"
       id="path4466"
       style="opacity:0.41999996;fill:none;stroke:#f6daae;stroke-width:1;stroke-linecap:round;stroke-linejoin:round;stroke-miterlimit:4;stroke-opacity:1;stroke-dasharray:none;display:inline;enable-background:new" />
  </g>
</svg>

<?xml version="1.0" encoding="UTF-8" standalone="no"?>
<!-- Created with Inkscape (http://www.inkscape.org/) -->
<svg id="svg3734" xmlns:rdf="http://www.w3.org/1999/02/22-rdf-syntax-ns#" xmlns="http://www.w3.org/2000/svg" height="22" width="22" version="1.1" xmlns:cc="http://creativecommons.org/ns#" xmlns:xlink="http://www.w3.org/1999/xlink" xmlns:dc="http://purl.org/dc/elements/1.1/">
 <metadata id="metadata29">
  <rdf:RDF>
   <cc:Work rdf:about="">
    <dc:format>image/svg+xml</dc:format>
    <dc:type rdf:resource="http://purl.org/dc/dcmitype/StillImage"/>
    <dc:title/>
   </cc:Work>
  </rdf:RDF>
 </metadata>
 <defs id="defs3736">
  <linearGradient id="linearGradient4456">
   <stop id="stop4458" style="stop-color:#f6daae" offset="0"/>
   <stop id="stop4460" style="stop-color:#f0c178;stop-opacity:0" offset="1"/>
  </linearGradient>
  <linearGradient id="linearGradient3390-178-986-453-4-5">
   <stop id="stop3624-8-6" style="stop-color:#bb2b12" offset="0"/>
   <stop id="stop3626-1-1" style="stop-color:#cd7233" offset="1"/>
  </linearGradient>
  <linearGradient id="linearGradient3732" y2="176.96" xlink:href="#linearGradient3390-178-986-453-4-5" gradientUnits="userSpaceOnUse" x2="-46.583" gradientTransform="matrix(.92957 0 0 .99594 51.302 -181.74)" y1="198.91" x1="-39.666"/>
  <linearGradient id="linearGradient7012-661-145-733-759-865-745-661-970-94-1-0">
   <stop id="stop3618-1-9" style="stop-color:#f0c178" offset="0"/>
   <stop id="stop3270-5-6" style="stop-color:#e18941" offset=".5"/>
   <stop id="stop3620-9-3" style="stop-color:#ec4f18" offset="1"/>
  </linearGradient>
  <linearGradient id="linearGradient4322" y2="196.54" xlink:href="#linearGradient7012-661-145-733-759-865-745-661-970-94-1-0" gradientUnits="userSpaceOnUse" x2="-45.508" gradientTransform="matrix(.92957 0 0 .99594 51.302 -181.74)" y1="180.47" x1="-50.886"/>
  <linearGradient id="linearGradient4324" y2="197.11" xlink:href="#linearGradient7012-661-145-733-759-865-745-661-970-94-1-0" gradientUnits="userSpaceOnUse" x2="-50.044" gradientTransform="matrix(.92957 0 0 .99594 51.302 -181.74)" y1="181.48" x1="-51.962"/>
  <linearGradient id="linearGradient4462" y2="16" xlink:href="#linearGradient4456" gradientUnits="userSpaceOnUse" x2="13" y1="-3" x1="5.5"/>
 </defs>
 <g id="layer1" transform="translate(0 6.0004)">
  <path id="path3169-2-3" style="stroke-linejoin:round;stroke-width:5;stroke:url(#linearGradient3732);stroke-linecap:round;enable-background:new;fill:none" d="m8.4802-1.4936-5.9802 6.4935 5.9802 6.4941"/>
  <path id="path3765" style="stroke-linejoin:round;enable-background:new;stroke:url(#linearGradient3732);stroke-linecap:round;stroke-width:6;fill:none" d="m19 5-12.5-0.0001"/>
  <path id="path4277" style="stroke-linejoin:round;stroke-width:3;stroke:url(#linearGradient4322);stroke-linecap:round;enable-background:new;fill:none" d="m8.5111-1.5245-6.0111 6.5244 5.8036 6.5241"/>
  <path id="path4279" style="stroke-linejoin:round;stroke-width:4;stroke:url(#linearGradient4324);stroke-linecap:round;enable-background:new;fill:none" d="m19 5-12.5-0.0001"/>
  <path id="path4454" style="opacity:.4;stroke-linejoin:round;enable-background:new;stroke:url(#linearGradient4462);stroke-linecap:round;fill:none" d="m8.8347 10.612-2.3347-2.612c-0.9424-1.0545 0-1.5 1.5-1.5h10.5c3 0 2.5-3 0-3h-10c-1.5 0-3 0-2-1.5l2.3356-2.5457c1.5-2-0.5-2.5-1.5-1.5l-5.3356 6.0457c-0.5 0.5-0.5276 1.3333 0 2l5.3347 6.1123c1 1 2.9136 0.08168 1.5-1.5z"/>
  <path id="path4464" style="opacity:.4;stroke-linejoin:round;stroke:url(#linearGradient4462);stroke-linecap:round;enable-background:new;fill:none" d="m6.5 2 2.4035-2.544c1.5-2-0.5-2.5-1.5-1.5l-5.4035 6.044c-0.5 0.5-0.5276 1.3333 0 2l5.3351 6.1114c1 1 2.914 0.08132 1.5-1.5l-2.3351-2.611"/>
  <path id="path4466" style="opacity:0.42;stroke-linejoin:round;stroke:#f6daae;stroke-linecap:round;enable-background:new;fill:none" d="m7.1241-1.6267-5.1241 5.6267"/>
 </g>
</svg>
